X: 39664
T: Tending The Steer With A Heavy Heart
R: slip jig
M: 9/8
K: Bminor
|:A2 F FEE FED|A2 F FF/G/A Bcd|
AFF FEE FED|1 B2 E E2 F GAB:|2 B2 E E2 F GFE||
|:F2 D dBB cBA|FD/E/F dcB c2 A|
[2 AA/B/c dcB c>BA|BEE EF/G/A Bcd||

